icons/svg/filter-remove.svg

﻿<?xml version="1.0" encoding="utf-8"?>
<!DOCTYPE svg PUBLIC "-//W3C//DTD SVG 1.1//EN" "http://www.w3.org/Graphics/SVG/1.1/DTD/svg11.dtd">
<svg xmlns="http://www.w3.org/2000/svg" xmlns:xlink="http://www.w3.org/1999/xlink" version="1.1" baseProfile="full" width="24" height="24" viewBox="0 0 24.00 24.00" enable-background="new 0 0 24.00 24.00" xml:space="preserve">
	<path fill="#000000" fill-opacity="1" stroke-width="0.2" stroke-linejoin="round" d="M 14.7574,20.8284L 17.6036,17.9822L 14.7574,15.1716L 16.1716,13.7574L 19.0178,16.568L 21.8284,13.7574L 23.2426,15.1716L 20.432,17.9822L 23.2426,20.8284L 21.8284,22.2426L 19.0178,19.3964L 16.1716,22.2426L 14.7574,20.8284 Z M 2,2L 19.9888,2.00001L 20,2.00001L 20,2.01122L 20,3.99999L 19.9207,3.99999L 13,10.9207L 13,22.909L 8.99999,18.909L 8.99999,10.906L 2.09405,3.99999L 2,3.99999L 2,2 Z "/>
</svg>

<svg xmlns="http://www.w3.org/2000/svg" version="1.1" baseProfile="full" width="24" height="24" viewBox="0 0 24.00 24.00" xml:space="preserve"><path fill="#000" fill-opacity="1" stroke-width=".2" stroke-linejoin="round" d="M14.757 20.828l2.847-2.846-2.847-2.81 1.415-1.415 2.846 2.81 2.81-2.81 1.415 1.415-2.81 2.81 2.81 2.846-1.415 1.415-2.81-2.847-2.846 2.847-1.415-1.415zM2 2h18v2h-.08L13 10.92v11.99l-4-4v-8.004L2.094 4H2V2z"/></svg>
